dist/svgs/geomicons-open/icons/speakervolume.svg

<svg xmlns="http://www.w3.org/2000/svg" viewBox="0 0 32 32"><path d="M2 12h6l8-6v20l-8-6H2zm30 4a16 16 0 01-4.75 11.375l-2-2.125A13 13 0 0029 16a13 13 0 00-3.75-9.25l2-2.125A16 16 0 0132 16m-7 0a9 9 0 01-2.625 6.375L20.25 20.25A6 6 0 0022 16a6 6 0 00-1.75-4.25l2.125-2.125A9 9 0 0125 16"/></svg>

<svg id="speakerVolume" xmlns="http://www.w3.org/2000/svg" viewBox="0 0 32 32" width="32" height="32" fill="currentcolor">
  <path d="M2 12 L8 12 L16 6 L16 26 L8 20 L2 20 z M32 16 A16 16 0 0 1 27.25 27.375 L25.25 25.25 A13 13 0 0 0 29 16 A13 13 0 0 0 25.25 6.75 L27.25 4.625 A16 16 0 0 1 32 16 M25 16 A9 9 0 0 1 22.375 22.375 L20.25 20.25 A6 6 0 0 0 22 16 A6 6 0 0 0 20.25 11.75 L22.375 9.625 A9 9 0 0 1 25 16"></path>
</svg>
